X:0965
T:Reel of Caithness.
M:C
L:1/8
Q:1/2=100
I: :: :|
Z:Jack Campin * www.campin.me.uk * 2009
K:A Minor
e2 dBAG    E2|G2GB dBGg    |e2 dBAG    E2|gegB A/A/A A2:|
gaba g/g/g g2|edeg a/a/a a2|gaba g/g/g g2|edBd e2    E2:|

